X:1
T:Made In Abyss
T:Made In Abyss
T:Piano Arrangement
T:Kevin Penkin
C:Kevin Penkin
%%score { 1 | 2 }
L:1/8
Q:1/4=87
M:4/4
K:C
V:1 treble nm="Piano" snm="Pno."
V:2 bass 
V:1
 z8 | z4 z2 z [Ee] | [Ee]4 z2 z [ee'] | [ee']4 z4 | e2 ed edcd | g2 gd- d4 | cddc dcBc | %7
 e2 eB- B2 A/B/c/d/ | e2 ed eabc' | d'2 c'e'- e'2 c'd'- | d'4- d'c'ac' | b2 a2 g4 | z8 | %13
 z4 z2 z [Ee] | [Ee]4 z2 z [ee'] | [ee']4 z4 | e2 ed edcd | g2 gd- d4 | cddc dcBc | %19
 e2 eB- B2 A/B/c/d/ | e2 ed eabc' | d'2 c'e'- e'2 c'd' | [db]4 z c'ac' | c'2 b2 a2 g2 | %24
 !arpeggio![eac'e']4 [ac'd']2 [ac']2 | [eab]2 [ea]2 [eg]2 e'/g'/d'/e'/ | %26
 c'/>d'/ (3z/ a/ z/ (3c'/ z/ g/ (3z/ a/ z/ e/>g/ (3z/ d/ z/ e/>c/ (3z/ d/ z/ | A2 GB,/C/ F2 E2 | %28
 [ge']2 [fd']2 [ec']2 [db]2 | [ca]2 [Bg]2 [Af]2 [Ge]2 | [ge']2 [fd']2 [ec']2 [db]2 | %31
 [ca]2 [Bg]2 [Af]2 [Ge]2 | z8 | z4 z2 z [Ee] | [Ee]4 z2 z [ee'] | [ee']4 z4 | %36
!8va(! e''/a'/e' e''/a'/e' e''/a'/ e'3 | d''/a'/d' d''/a'/d'- d'4 | %38
 c''/g'/c' c''/g'/c' c''/g'/ c'3 | b'/g'/b b'/g'/e'/b/ g4- | g8!8va)! |] %41
V:2
 F,,C,A,B, E4 | F,,C,A,B, E4 | F,,C,A,B, E4 | F,,C,A,B, E4 | F,,C,A,B, E4 | E,,C,G,C- C4 | %6
 D,,A,,F,A, G,,B,,G,B, | C,,G,,C,E, G,4 | A,,E,A,C E4 | F,,C,F,A, ^F,,D,^F,A, | G,,D,G,B,- B,4 | %11
 F,,C,F,A,- A,4 | F,,C,A,B, E4 | F,,C,A,B, E4 | F,,C,A,B, E4 | F,,C,A,B, E4 | F,,C,A,B, E4 | %17
 E,,C,G,C- C4 | D,,A,,F,A, G,,B,,G,B, | C,,G,,E,G, E2 z G,/D/ | A,,E,CE- EC/B,/ A,E, | %21
 F,,C,F,A, ^F,,D,^F,A, | G,,D,G,B,- B,4 | E,,B,,E,G, B,4 | F,,C,A,C, A,C,A,C, | %25
 F,,C,A,C, A,C,A,C, | F,,C,A,C, A,C, A,2 | G,,D, G,2 A,,E, A,B,/C/ | C,,G,,E,G, CG,,E,G, | %29
 E,,B,,E,G, B,B,,E,G, | F,,C,F,A, CF,A,C | F,,C,F,A, CF, A,2 | F,,C,A,B, E4 | F,,C,A,B, E4 | %34
 F,,C,A,B, E4 | F,,C,A,B, E4 | z8 |[K:treble] z4 z2 z [Ee] | [Ee]2 z2 z2 z [ee'] | [ee']2 z2 z4 | %40
 z8 |] %41

